logos/codesee.svg

<?xml version="1.0" encoding="UTF-8"?>
<svg width="512px" height="85px" viewBox="0 0 512 85" version="1.1" xmlns="http://www.w3.org/2000/svg" preserveAspectRatio="xMidYMid">
    <title>CodeSee</title>
    <g fill="#000000">
        <path d="M492.81115,84.7971991 C499.295894,84.7971991 505.383986,82.2825142 510.280942,79.5035903 L506.046055,68.6509565 C502.605062,70.6359863 498.369586,72.2243632 493.47263,72.2243632 C480.634967,72.2243632 478.120282,63.0919316 478.120282,50.1220308 C478.120282,37.1518946 479.708659,26.9610355 488.575674,26.9610355 C496.119729,26.9610355 499.031655,36.357765 497.84052,50.1220308 L502.207821,44.5634178 L474.017809,44.5634178 L473.752981,53.8277924 L511.736905,53.8277924 C513.590109,27.8874612 505.648813,15.4466859 488.046608,15.4466859 C470.444402,15.4466859 463.032761,29.2109517 463.032761,50.1220308 C463.032761,71.0332276 471.899777,84.7971991 492.81115,84.7971991 Z M437.621673,84.7971991 C444.107006,84.7971991 450.195097,82.2825142 455.091465,79.5035903 L450.856578,68.6509565 C447.415585,70.6359863 443.180109,72.2243632 438.283153,72.2243632 C425.44549,72.2243632 422.930805,63.0919316 422.930805,50.1220308 C422.930805,37.1518946 424.519182,26.9610355 433.386786,26.9610355 C440.930252,26.9610355 443.842178,36.357765 442.651043,50.1220308 L447.018344,44.5634178 L418.828332,44.5634178 L418.563504,53.8277924 L456.547428,53.8277924 C458.400633,27.8874612 450.459337,15.4466859 432.857131,15.4466859 C415.254925,15.4466859 407.843284,29.2109517 407.843284,50.1220308 C407.843284,71.0332276 416.710888,84.7971991 437.621673,84.7971991 Z M378.593962,84.7971991 C392.226108,84.7971991 402.416673,77.9152134 402.416673,62.0332098 C402.416673,50.5190956 395.402273,42.7105076 384.54964,35.9607591 C377.800068,31.7255777 375.55021,28.6815319 375.55021,24.8434743 C375.55021,20.2112281 379.520858,17.4318922 384.417814,17.4318922 C388.520288,17.4318922 392.093694,18.2260218 395.667101,20.6082929 L400.166816,9.22629826 C395.667101,6.04995639 390.902559,4.72644825 384.54964,4.5940992 C371.050496,4.3294011 360.330276,12.402699 360.330276,26.0346098 C360.330276,35.9607591 365.756298,40.9899523 376.211691,48.2691794 C383.226679,53.1660766 387.329152,56.6071283 387.329152,62.0332098 C387.329152,68.1213014 382.961851,71.5622942 376.211691,71.5622942 C371.579562,71.5622942 366.81502,69.3124369 363.1092,67.4598209 L358.477071,79.7684179 C363.1092,82.414928 370.918082,84.7971991 378.593962,84.7971991 Z"></path>
        <path d="M282.905876,75.1362894 L285.950216,70.6359863 C283.832773,71.430469 281.318088,72.2243632 278.141334,72.2243632 C267.024461,72.2243632 263.186227,63.0925201 263.186227,50.1221485 C263.186227,37.1520123 265.700912,26.9611532 276.288718,26.9611532 C278.670989,26.9611532 282.905876,26.5640884 286.611697,31.0639208 L282.905876,25.3729529 L282.905876,75.1362894 Z M277.744681,84.7977876 C284.229425,84.7977876 291.112,83.7384774 297.199503,80.8271396 L297.199503,0 L282.905876,2.64697509 L282.905876,19.6819849 L289.920864,19.946636 C285.950216,17.035004 280.788433,15.4468036 274.567927,15.4468036 C256.965721,15.4468036 248.098706,29.2110694 248.098706,50.1221485 C248.098706,71.0332276 256.833308,84.7977876 277.744681,84.7977876 Z M333.99288,84.7977876 C340.477624,84.7977876 346.565716,82.2831028 351.462672,79.5035903 L347.227785,68.6509565 C343.786792,70.6359863 339.551316,72.2243632 334.65436,72.2243632 C321.816697,72.2243632 319.302012,63.0925201 319.302012,50.1221485 C319.302012,37.1520123 320.890389,26.9611532 329.757404,26.9611532 C337.301459,26.9611532 340.213385,36.3578827 339.022249,50.1221485 L343.38955,44.5635355 L315.19895,44.5635355 L314.934711,53.8279101 L352.918635,53.8279101 C354.771251,27.8875789 346.830543,15.4468036 329.228337,15.4468036 C311.625543,15.4468036 304.214491,29.2110694 304.214491,50.1221485 C304.214491,71.0332276 313.081506,84.7977876 333.99288,84.7977876 Z M215.540805,72.2243632 C206.6732,72.2243632 204.158516,63.0925201 204.158516,50.1221485 C204.158516,37.1520123 206.6732,26.9611532 215.540805,26.9611532 C224.40782,26.9611532 226.922505,37.1520123 226.922505,50.1221485 C226.922505,63.0925201 224.40782,72.2243632 215.540805,72.2243632 Z M215.540805,84.7977876 C233.14301,84.7977876 242.010614,71.0332276 242.010614,50.1221485 C242.010614,29.2110694 233.14301,15.4468036 215.540805,15.4468036 C197.93801,15.4468036 189.070995,29.2110694 189.070995,50.1221485 C189.070995,71.0332276 197.93801,84.7977876 215.540805,84.7977876 Z M168.424449,84.7977994 C174.624357,84.8030842 180.693027,83.0104958 185.894241,79.6360041 L181.394526,67.5922347 C177.953533,69.7096783 174.115299,71.2980552 169.880412,71.2980552 C157.969057,71.2980552 152.410032,59.6515272 152.410032,44.1664707 C152.410032,27.4905141 159.160192,18.2261395 170.409479,18.2261395 C173.982885,18.2261395 177.688706,19.6819849 180.600632,21.2701264 L185.365174,9.49112583 C180.86546,6.44708004 175.83609,4.5942169 168.424449,4.5942169 C149.101452,4.5942169 136.263789,20.0789909 136.263789,44.8281865 C136.263789,73.0182574 151.748551,84.7977994 168.424449,84.7977994 Z"></path>
        <path d="M45.9820108,15.5448487 L51.4594689,29.5268027 C43.0990979,32.8421496 32.144123,40.4817776 21.477457,49.9952667 C32.144123,59.5085203 43.0990979,67.0043175 51.4594689,70.607738 L46.1261359,84.3016773 C32.7207409,78.5360869 16.2883079,65.8508463 3.34526765e-14,49.8511416 L0.977275343,48.8953196 C16.9386848,33.3522315 32.8446661,21.1953003 45.9820108,15.5448487 Z M73.9457424,15.5448487 C87.3513139,21.3106156 103.639386,33.8511426 119.928047,49.8511416 L118.950581,50.8071177 C102.983307,66.3554881 86.9390186,78.6513987 73.8015585,84.3016773 L68.4685197,70.607738 C76.8288318,67.0043175 87.7838656,59.5085203 98.4505316,49.9952667 L97.5850918,49.2280574 C87.193597,40.0719835 76.6028775,32.7525456 68.4685197,29.5268027 L73.9457424,15.5448487 Z M59.9640237,38.8961078 C66.2527957,38.8961078 71.3516092,43.9944505 71.3516092,50.2835168 C71.3516092,56.572583 66.2527957,61.6706903 59.9640237,61.6706903 C53.6748986,61.6706903 48.576556,56.572583 48.576556,50.2835168 C48.576556,43.9944505 53.6748986,38.8961078 59.9640237,38.8961078 Z"></path>
    </g>
</svg>

<svg preserveAspectRatio="xMidYMid" viewBox="0 0 512 85" xmlns="http://www.w3.org/2000/svg">
  <path d="M492.811 84.797c6.485 0 12.573-2.514 17.47-5.293l-4.235-10.853c-3.44 1.985-7.676 3.573-12.573 3.573-12.838 0-15.353-9.132-15.353-22.102s1.589-23.161 10.456-23.161c7.544 0 10.456 9.397 9.265 23.161l4.367-5.559h-28.19l-.265 9.265h37.984c1.853-25.94-6.088-38.381-23.69-38.381-17.603 0-25.014 13.764-25.014 34.675 0 20.911 8.867 34.675 29.778 34.675Zm-55.19 0c6.486 0 12.574-2.514 17.47-5.293l-4.234-10.853c-3.441 1.985-7.677 3.573-12.574 3.573-12.838 0-15.352-9.132-15.352-22.102s1.588-23.161 10.456-23.161c7.543 0 10.455 9.397 9.264 23.161l4.367-5.559h-28.19l-.264 9.265h37.983c1.854-25.94-6.088-38.381-23.69-38.381s-25.014 13.764-25.014 34.675c0 20.911 8.868 34.675 29.779 34.675Zm-59.027 0c13.632 0 23.823-6.882 23.823-22.764 0-11.514-7.015-19.322-17.867-26.072-6.75-4.235-9-7.28-9-11.118 0-4.632 3.97-7.411 8.868-7.411 4.102 0 7.676.794 11.25 3.176l4.499-11.382c-4.5-3.176-9.264-4.5-15.617-4.632-13.5-.265-24.22 7.809-24.22 21.44 0 9.927 5.426 14.956 15.882 22.235 7.015 4.897 11.117 8.338 11.117 13.764 0 6.088-4.367 9.53-11.117 9.53-4.632 0-9.397-2.25-13.103-4.103l-4.632 12.308c4.632 2.647 12.441 5.03 20.117 5.03Z"/>
  <path d="m282.906 75.136 3.044-4.5c-2.117.794-4.632 1.588-7.809 1.588-11.117 0-14.955-9.131-14.955-22.102 0-12.97 2.515-23.16 13.103-23.16 2.382 0 6.617-.398 10.323 4.102l-3.706-5.691v49.763Zm-5.161 9.662c6.484 0 13.367-1.06 19.455-3.97V0l-14.294 2.647v17.035l7.015.265c-3.97-2.912-9.133-4.5-15.353-4.5-17.602 0-26.47 13.764-26.47 34.675 0 20.911 8.735 34.676 29.647 34.676Zm56.248 0c6.485 0 12.573-2.515 17.47-5.294l-4.235-10.853c-3.441 1.985-7.677 3.573-12.574 3.573-12.837 0-15.352-9.131-15.352-22.102 0-12.97 1.588-23.16 10.455-23.16 7.544 0 10.456 9.396 9.265 23.16l4.368-5.558h-28.191l-.264 9.264h37.984c1.852-25.94-6.088-38.381-23.69-38.381-17.603 0-25.015 13.764-25.015 34.675 0 20.911 8.868 34.676 29.779 34.676ZM215.54 72.224c-8.868 0-11.382-9.131-11.382-22.102 0-12.97 2.514-23.16 11.382-23.16 8.867 0 11.382 10.19 11.382 23.16s-2.515 22.102-11.382 22.102Zm0 12.574c17.602 0 26.47-13.765 26.47-34.676 0-20.91-8.868-34.675-26.47-34.675-17.603 0-26.47 13.764-26.47 34.675 0 20.911 8.867 34.676 26.47 34.676Zm-47.117 0a32.047 32.047 0 0 0 17.47-5.162l-4.5-12.044c-3.44 2.118-7.279 3.706-11.514 3.706-11.91 0-17.47-11.646-17.47-27.132 0-16.675 6.75-25.94 18-25.94 3.573 0 7.279 1.456 10.19 3.044l4.765-11.779c-4.5-3.044-9.529-4.897-16.94-4.897-19.324 0-32.161 15.485-32.161 40.234 0 28.19 15.485 39.97 32.16 39.97Z"/>
  <path d="m45.982 15.545 5.477 13.982c-8.36 3.315-19.315 10.955-29.982 20.468C32.144 59.51 43.1 67.005 51.46 70.608l-5.333 13.694C32.721 78.536 16.288 65.85 0 49.852l.977-.957c15.962-15.543 31.868-27.7 45.005-33.35Zm27.964 0C87.35 21.31 103.639 33.85 119.928 49.85l-.977.956C102.983 66.355 86.939 78.651 73.8 84.302l-5.33-13.694c8.36-3.604 19.315-11.1 29.982-20.613l-.866-.767C87.194 40.072 76.603 32.753 68.47 29.527l5.477-13.982ZM59.964 38.896c6.289 0 11.388 5.098 11.388 11.388 0 6.289-5.1 11.387-11.388 11.387-6.29 0-11.387-5.098-11.387-11.387 0-6.29 5.098-11.388 11.387-11.388Z"/>
</svg>
